frontend/public/svg/currency/rupee.svg

<svg width="163" height="160" viewBox="0 0 163 160" fill="none" xmlns="http://www.w3.org/2000/svg">
<g clip-path="url(#clip0)">
<path d="M90.1973 65.0986C86.5736 65.0986 83.481 65.0986 80.3883 65.0986C77.1322 65.0986 73.8748 65.1603 70.62 65.0895C69.5233 65.0652 68.2362 65.0094 67.3935 64.4397C66.4936 63.8306 65.4979 62.5961 65.5012 61.6378C65.5045 60.6796 66.5068 59.3872 67.4237 58.8858C68.5303 58.2806 70.0018 58.2183 71.3263 58.1586C77.4958 57.8803 83.6654 57.6899 89.835 57.4477C90.4808 57.3891 91.1227 57.2943 91.758 57.1636C91.7095 51.8125 89.5921 49.0965 84.6138 48.0746C83.0754 47.7719 81.5113 47.6148 79.9433 47.6053C72.1985 47.4984 64.4537 47.493 56.705 47.371C54.3495 47.3111 51.9987 47.1326 49.6613 46.8361C49.2924 46.8232 48.9298 46.736 48.5953 46.58C48.2608 46.4241 47.9613 46.2023 47.7144 45.928C47.4674 45.6538 47.2782 45.3326 47.158 44.9837C47.0378 44.6347 46.989 44.2652 47.0147 43.897C46.9832 42.0822 48.1482 41.3169 49.6952 40.9684C50.3567 40.8475 51.0287 40.7929 51.7011 40.8056C66.2919 40.5238 80.8832 40.2433 95.4755 39.9642C97.4931 39.9235 99.5081 39.7351 101.526 39.636C103.655 39.5297 105.789 39.3315 107.916 39.3808C110.751 39.4464 112.368 40.7505 112.532 42.8239C112.704 44.997 111.396 46.4941 108.569 46.9155C106.136 47.2784 103.661 47.3867 101.2 47.518C99.5658 47.6053 97.9237 47.5344 96.1667 47.5344C97.3546 50.8069 98.4113 53.7177 99.5934 56.9725C101.825 56.8268 104.145 56.5879 106.471 56.5485C108.695 56.4693 110.922 56.5571 113.133 56.8111C115.025 57.0658 116.009 58.5334 116.123 60.3869C116.236 62.2246 115.474 63.8844 113.653 64.3504C111.189 64.9805 108.566 65.6848 106.098 65.4511C101.391 65.0048 98.0248 65.5351 95.8319 70.6704C94.5796 73.6049 91.3793 75.9427 88.6214 77.9557C82.465 82.4444 75.3234 84.8295 67.9573 86.5537C66.7581 86.834 65.5565 87.1024 63.8546 87.491C64.9139 88.2963 65.6265 88.9349 66.4293 89.4344C78.2073 96.8267 89.9925 104.209 101.784 111.582C102.271 111.861 102.741 112.169 103.193 112.501C105.237 114.125 105.851 116.526 104.742 118.448C103.634 120.37 101.203 120.998 98.8025 119.957C98.2952 119.719 97.8088 119.438 97.35 119.115C84.6053 110.726 71.8395 102.369 59.1426 93.9073C56.6231 92.2232 54.2547 90.3237 52.0645 88.2294C48.5564 84.8761 49.6971 80.7721 54.4693 79.7469C59.5028 78.6652 64.6504 78.1211 69.69 77.0638C75.303 75.881 80.6305 73.6094 85.3693 70.377C87.421 69.0801 89.0881 67.2574 90.1973 65.0986Z" fill="black"/>
<path d="M161.604 73.2751C159.757 57.0687 153.252 41.7454 142.876 29.1604C134.324 18.6662 125.124 11.1873 114.752 6.30412C106.658 2.4045 97.7913 0.373869 88.8067 0.362305C86.0468 0.366804 83.2895 0.546939 80.5519 0.901749C69.1605 2.37917 57.6141 5.68388 44.2268 11.3087C26.1184 18.9222 13.5101 32.0063 6.76232 50.1888C2.02912 62.6747 0.204905 76.0757 1.42829 89.3724C2.85123 104.311 6.44597 115.888 12.7376 125.799C21.8292 140.107 33.281 149.526 47.7546 154.591C56.5285 157.666 66.1865 159.21 78.1373 159.453C85.1719 159.453 91.7202 158.604 98.0532 157.781L99.2536 157.626C113.079 155.838 124.821 150.848 135.155 142.384C144.872 134.569 152.227 124.209 156.4 112.459C161.348 98.4246 163.048 85.6037 161.604 73.2751ZM145.283 117.835C137.46 133.677 124.302 144.07 106.16 148.723C103.981 149.283 101.729 149.687 99.3481 150.113C98.1667 150.321 96.9335 150.544 95.6385 150.793C89.994 151.643 82.3805 151.772 78.1845 151.772C76.3166 151.772 75.1227 151.744 75.0892 151.744C64.0685 151.613 54.5866 149.741 46.1086 146.026C34.8124 141.075 25.7819 132.719 18.511 120.485C14.1208 113.107 11.3352 104.372 9.75015 93.002C7.71675 78.5383 9.4951 63.7945 14.9095 50.2295C20.6085 35.7763 30.8586 24.8108 45.3735 17.641C48.7254 15.9824 62.3489 11.9893 65.9298 11.2614C70.9727 10.2551 76.0856 9.63959 81.2227 9.42037C101.543 8.93468 109.569 12.2052 121.981 21.6814C134.977 31.602 144.136 44.0717 149.208 58.7409C156.094 78.7247 154.779 98.6064 145.283 117.835Z" fill="black"/>
</g>
<defs>
<clipPath id="clip0">
<rect width="161.459" height="159.49" fill="white" transform="translate(0.686768 0.13501)"/>
</clipPath>
</defs>
</svg>

<svg xmlns="http://www.w3.org/2000/svg" width="163" height="160" fill="none" viewBox="0 0 163 160"><g fill="#000" clip-path="url(#a)"><path d="M90.197 65.099h-9.809c-3.256 0-6.513.061-9.768-.01-1.097-.024-2.384-.08-3.227-.65-.9-.608-1.895-1.843-1.892-2.801s1.006-2.25 1.923-2.752c1.106-.605 2.578-.668 3.902-.727 6.17-.279 12.34-.47 18.509-.711a17 17 0 0 0 1.923-.284c-.048-5.352-2.166-8.068-7.144-9.09a25 25 0 0 0-4.67-.469c-7.746-.107-15.49-.112-23.239-.234a70 70 0 0 1-7.044-.535 2.75 2.75 0 0 1-2.646-2.939c-.032-1.815 1.133-2.58 2.68-2.929.662-.12 1.334-.175 2.006-.162q21.886-.423 43.774-.842c2.018-.04 4.033-.229 6.051-.328 2.129-.106 4.263-.305 6.39-.255 2.835.065 4.452 1.37 4.616 3.443.172 2.173-1.136 3.67-3.963 4.092-2.433.362-4.908.47-7.369.602-1.634.087-3.276.016-5.033.016l3.426 9.438c2.232-.145 4.552-.384 6.878-.424 2.224-.079 4.451.01 6.662.263 1.892.255 2.876 1.722 2.99 3.576.113 1.838-.649 3.497-2.47 3.963-2.464.63-5.087 1.335-7.555 1.101-4.707-.446-8.073.084-10.266 5.22-1.252 2.934-4.453 5.272-7.21 7.285-6.157 4.488-13.299 6.873-20.665 8.598-1.199.28-2.4.548-4.102.937 1.059.805 1.771 1.444 2.574 1.943a24664 24664 0 0 0 35.355 22.148q.73.42 1.409.919c2.044 1.624 2.658 4.025 1.549 5.947s-3.539 2.55-5.94 1.509a9.6 9.6 0 0 1-1.452-.842c-12.745-8.389-25.51-16.746-38.207-25.208a52.3 52.3 0 0 1-7.078-5.678c-3.509-3.353-2.368-7.457 2.404-8.482 5.034-1.082 10.181-1.626 15.221-2.683a43.9 43.9 0 0 0 15.68-6.687 13.6 13.6 0 0 0 4.827-5.278"/><path d="M161.604 73.275a84.36 84.36 0 0 0-18.728-44.115c-8.552-10.494-17.752-17.973-28.124-22.856A59.95 59.95 0 0 0 88.807.362a65 65 0 0 0-8.255.54C69.16 2.379 57.614 5.684 44.227 11.309 26.118 18.922 13.51 32.006 6.762 50.189a87.84 87.84 0 0 0-5.334 39.183c1.423 14.939 5.018 26.516 11.31 36.427 9.091 14.308 20.543 23.727 35.017 28.792 8.773 3.075 18.431 4.619 30.382 4.862 7.035 0 13.583-.849 19.916-1.672l1.2-.155c13.826-1.788 25.568-6.778 35.902-15.242a67.3 67.3 0 0 0 21.245-29.925c4.948-14.034 6.648-26.855 5.204-39.184m-16.321 44.56c-7.823 15.842-20.981 26.235-39.123 30.888-2.179.56-4.431.964-6.812 1.39-1.181.208-2.415.431-3.71.68-5.644.85-13.258.979-17.454.979-1.867 0-3.061-.028-3.095-.028-11.02-.131-20.502-2.003-28.98-5.718-11.297-4.951-20.327-13.307-27.598-25.541-4.39-7.378-7.176-16.113-8.76-27.483A83.9 83.9 0 0 1 14.91 50.23c5.698-14.454 15.949-25.42 30.463-32.589 3.352-1.659 16.976-5.652 20.557-6.38a100 100 0 0 1 15.293-1.84c20.32-.486 28.346 2.784 40.758 12.26 12.996 9.921 22.155 22.39 27.227 37.06 6.886 19.984 5.571 39.865-3.925 59.094"/></g><defs><clipPath id="a"><path fill="#fff" d="M.687.135h161.459v159.49H.686z"/></clipPath></defs></svg>
